icon/fa/droplet-slash.svg

<svg xmlns="http://www.w3.org/2000/svg" viewBox="0 0 640 512"><!--! Font Awesome Free 6.1.2 by @fontawesome - https://fontawesome.com License - https://fontawesome.com/license/free (Icons: CC BY 4.0, Fonts: SIL OFL 1.1, Code: MIT License) Copyright 2022 Fonticons, Inc.--><path d="M215.3 143.4c28.2-48.33 58.9-94.11 79.6-124.1 12.3-17.715 37.9-17.715 50.2 0C393.7 89.43 496 245.9 496 319.1c0 14.6-1.6 28-4.5 40.8l139.3 109.2c10.4 8.2 12.3 23.3 4.1 33.7-8.2 10.4-23.3 12.3-33.7 4.1L9.196 42.89C-1.236 34.71-3.065 19.63 5.112 9.196 13.29-1.236 28.37-3.065 38.81 5.112L215.3 143.4zm-72.2 175.7c0-22.6 11.2-54.5 26-89.2l274.4 215.5c-31.8 31.3-75.4 50.6-124.4 50.6-96.3 0-176-78.8-176-176.9zm96 0c0-7.9-6.3-16-16-16-7.9 0-16 8.1-16 16 0 62.8 51 112.9 112 112.9 9.7 0 16.9-7.2 16.9-16s-7.2-16-16.9-16c-43.3 0-80-35.8-80-80.9z"/></svg>

<svg xmlns="http://www.w3.org/2000/svg" viewBox="0 0 640 512" height="1em" width="1em">
<!--! Font Awesome Free 6.1.2 by @fontawesome - https://fontawesome.com License - https://fontawesome.com/license/free (Icons: CC BY 4.0, Fonts: SIL OFL 1.1, Code: MIT License) Copyright 2022 Fonticons, Inc.-->
  <path d="M215.3 143.4C243.5 95.07 274.2 49.29 294.9 19.3C307.2 1.585 332.8 1.585 345.1 19.3C393.7 89.43 496 245.9 496 319.1C496 333.7 494.4 347.1 491.5 359.9L630.8 469.1C641.2 477.3 643.1 492.4 634.9 502.8C626.7 513.2 611.6 515.1 601.2 506.9L9.196 42.89C-1.236 34.71-3.065 19.63 5.112 9.196C13.29-1.236 28.37-3.065 38.81 5.112L215.3 143.4zM143.1 319.1C143.1 296.5 154.3 264.6 169.1 229.9L443.5 445.4C411.7 476.7 368.1 496 319.1 496C222.8 496 143.1 417.2 143.1 319.1V319.1zM239.1 319.1C239.1 311.2 232.8 303.1 223.1 303.1C215.2 303.1 207.1 311.2 207.1 319.1C207.1 381.9 258.1 432 319.1 432C328.8 432 336 424.8 336 416C336 407.2 328.8 400 319.1 400C275.8 400 239.1 364.2 239.1 319.1V319.1z"/>
</svg>
